X:99005
T:Galloway House
P:Aitken Drum
C:Traditional
R:Reel (8x32)
B:RSCDS Gr-5
Z:Anselm Lingnau <anselm@strathspey.org>
M:C
L:1/4
K:G
G/A/|"G"BB BA/G/|"C"E2 G>E|"G"DD "C"EG|"D7"BAA G/A/|
     "G"BB BA/G/|"C"E2 G>E|"G"DD "D7"EF|"G"G3||
G/A/|"G"BB BA/G/|"C"c2 ec|"G"Bd "Em"BG|"D7"BAA G/A/|
     "G"BB "G7"BA/G/|"C"E2 G>E|"G"DD "D7"EF|"G"G3|]
